Anarchy/UI/src/images/no-parking-2-svgrepo-com.svg

<?xml version="1.0" encoding="utf-8"?>

<!DOCTYPE svg PUBLIC "-//W3C//DTD SVG 1.1//EN" "http://www.w3.org/Graphics/SVG/1.1/DTD/svg11.dtd">
<!-- Uploaded to: SVG Repo, www.svgrepo.com, Generator: SVG Repo Mixer Tools -->
<svg height="800px" width="800px" version="1.1" id="_x32_" xmlns="http://www.w3.org/2000/svg" xmlns:xlink="http://www.w3.org/1999/xlink" 
	 viewBox="0 0 512 512"  xml:space="preserve">
<style type="text/css">
	.st0{fill:#f4f4f4;}
</style>
<g>
	<path class="st0" d="M94.354,357.894c-16.833-1.74-31.852-9.288-43.174-20.61c-12.984-13.055-20.986-30.871-20.986-50.722
		c0-19.851,8.002-37.668,20.986-50.722c12.981-12.988,30.871-20.986,50.722-20.986c5.739,0,11.322,0.752,16.759,2.034L87.635,293.66
		l20.986,8.448l30.949-76.463c4.678,2.868,9.133,6.266,12.982,10.194c11.399,11.396,18.948,26.338,20.684,43.174l25.136-25.136
		c-8.153-24.229-25.287-44.383-47.405-56.612l13.287-32.758h116.544l-3.852,10.792l33.44-33.436h-137l33.363-82.353H119.49v22.645
		h53.667l-43.1,106.582c-8.982-2.639-18.418-4.076-28.155-4.076C45.592,184.66,0,230.252,0,286.562
		c0,44.914,28.985,82.957,69.217,96.542L94.354,357.894z"/>
	<path class="st0" d="M410.098,184.66c-10.191,0-20.08,1.511-29.364,4.304l-68.236,68.237c-1.736,5.808-2.941,11.846-3.623,18.038
		H294.46l-22.645,22.645h37.059c5.661,50.951,48.762,90.579,101.224,90.579c56.309,0,101.902-45.592,101.902-101.902
		C512,230.252,466.408,184.66,410.098,184.66z M460.824,337.284c-13.059,12.988-30.875,20.986-50.726,20.986
		s-37.668-7.998-50.726-20.986c-10.416-10.489-17.584-24.156-20.002-39.4h70.728V275.24H339.37
		c2.418-15.244,9.586-28.911,20.002-39.4c13.058-12.988,30.875-20.986,50.726-20.986s37.667,7.998,50.726,20.986
		c12.981,13.055,20.982,30.871,20.982,50.722C481.807,306.413,473.805,324.229,460.824,337.284z"/>
	<polygon class="st0" points="323.595,128.653 346.465,105.779 347.825,101.629 266.681,101.629 276.116,128.653 	"/>
	<polygon class="st0" points="452.082,42.872 41.84,453.118 57.854,469.128 468.096,58.883 	"/>
</g>
</svg>

<?xml version="1.0" encoding="UTF-8" standalone="no"?>
<!DOCTYPE svg PUBLIC "-//W3C//DTD SVG 1.1//EN" "http://www.w3.org/Graphics/SVG/1.1/DTD/svg11.dtd">
<svg width="100%" height="100%" viewBox="0 0 800 800" version="1.1" xmlns="http://www.w3.org/2000/svg" xmlns:xlink="http://www.w3.org/1999/xlink" xml:space="preserve" xmlns:serif="http://www.serif.com/" style="fill-rule:evenodd;clip-rule:evenodd;stroke-linejoin:round;stroke-miterlimit:2;">
    <g transform="matrix(1.5625,0,0,1.5625,0,60)">
        <path d="M94.354,357.894C77.521,356.154 62.502,348.606 51.18,337.284C38.196,324.229 30.194,306.413 30.194,286.562C30.194,266.711 38.196,248.894 51.18,235.84C64.161,222.852 82.051,214.854 101.902,214.854C107.641,214.854 113.224,215.606 118.661,216.888L87.635,293.66L108.621,302.108L139.57,225.645C144.248,228.513 148.703,231.911 152.552,235.839C163.951,247.235 171.5,262.177 173.236,279.013L198.372,253.877C190.219,229.648 173.085,209.494 150.967,197.265L164.254,164.507L280.798,164.507L276.946,175.299L310.386,141.863L173.386,141.863L206.749,59.51L119.49,59.51L119.49,82.155L173.157,82.155L130.057,188.737C121.075,186.098 111.639,184.661 101.902,184.661C45.592,184.66 0,230.252 0,286.562C0,331.476 28.985,369.519 69.217,383.104L94.354,357.894Z" style="fill:rgb(244,244,244);fill-rule:nonzero;"/>
        <path d="M410.098,184.66C399.907,184.66 390.018,186.171 380.734,188.964L312.498,257.201C310.762,263.009 309.557,269.047 308.875,275.239L294.46,275.239L271.815,297.884L308.874,297.884C314.535,348.835 357.636,388.463 410.098,388.463C466.407,388.463 512,342.871 512,286.561C512,230.252 466.408,184.66 410.098,184.66ZM460.824,337.284C447.765,350.272 429.949,358.27 410.098,358.27C390.247,358.27 372.43,350.272 359.372,337.284C348.956,326.795 341.788,313.128 339.37,297.884L410.098,297.884L410.098,275.24L339.37,275.24C341.788,259.996 348.956,246.329 359.372,235.84C372.43,222.852 390.247,214.854 410.098,214.854C429.949,214.854 447.765,222.852 460.824,235.84C473.805,248.895 481.806,266.711 481.806,286.562C481.807,306.413 473.805,324.229 460.824,337.284Z" style="fill:rgb(244,244,244);fill-rule:nonzero;"/>
        <path d="M323.595,128.653L346.465,105.779L347.825,101.629L266.681,101.629L276.116,128.653L323.595,128.653Z" style="fill:rgb(244,244,244);fill-rule:nonzero;"/>
        <path d="M452.082,42.872L41.84,453.118L57.854,469.128L468.096,58.883L452.082,42.872Z" style="fill:rgb(244,244,244);fill-rule:nonzero;"/>
    </g>
</svg>
